Numix/actions/48/brasero-disc-05.svg

<svg width="48" xmlns="http://www.w3.org/2000/svg" viewBox="0 0 48 48" height="48">
<g style="line-height:normal;color:#000">
<g transform="translate(0 -1004.3622)">
<path style="fill:#555" d="M 24,4 C 12.977993,4 4,12.978 4,24 4,35.022 12.977993,44 24,44 35.022006,44 44,35.022 44,24 44,12.978 35.022006,4 24,4 z m 0,4 0,8.40625 c 0.843106,0 1.647969,0.151631 2.40625,0.40625 l 2.65625,-8 C 35.433088,10.917682 40,16.906165 40,24 40,32.8603 32.860245,40 24,40 16.836076,40 10.79827,35.312842 8.75,28.84375 8.2649967,27.311955 8,25.696332 8,24 8,15.1398 15.139754,8 24,8 z m -15.25,20.84375 8,-2.53125 c -0.003,-0.0093 0.0029,-0.02198 0,-0.03125 l -8,2.5625 z" transform="translate(0 1004.3622)"/>
</g>
<g style="fill:#555" transform="translate(0 -1004.3622)">
<path d="m 24,1022.3466 c -3.307786,0 -6.015625,2.7078 -6.015625,6.0156 0,3.3078 2.707839,6.0156 6.015625,6.0156 3.307786,0 6.015625,-2.7078 6.015625,-6.0156 0,-3.3078 -2.707839,-6.0156 -6.015625,-6.0156 z m 0,1.0312 c 2.767346,0 4.984375,2.2171 4.984375,4.9844 0,2.7673 -2.217029,4.9844 -4.984375,4.9844 -2.767346,0 -4.984375,-2.2171 -4.984375,-4.9844 0,-2.7673 2.217029,-4.9844 4.984375,-4.9844 z"/>
<path d="m 24,1024.3685 c -2.197294,0 -3.99375,1.7964 -3.99375,3.9937 0,2.1973 1.796456,3.9938 3.99375,3.9938 2.197294,0 3.99375,-1.7965 3.99375,-3.9938 0,-2.1973 -1.796456,-3.9937 -3.99375,-3.9937 z m 0,1.9875 c 1.116414,0 2.00625,0.8898 2.00625,2.0062 0,1.1164 -0.889836,2.0063 -2.00625,2.0063 -1.116414,0 -2.00625,-0.8899 -2.00625,-2.0063 0,-1.1164 0.889836,-2.0062 2.00625,-2.0062 z"/>
</g>
</g>
</svg>

<svg xmlns="http://www.w3.org/2000/svg" viewBox="0 0 48 48" xmlns:xlink="http://www.w3.org/1999/xlink">
<g style="line-height:normal;color:#000">
<g transform="translate(0 -1004.3622)">
<path style="fill:#555555#5555555" d="M 24 4 C 12.977993 4 4 12.978 4 24 C 4 35.022 12.977993 44 24 44 C 35.022006 44 44 35.022 44 24 C 44 12.978 35.022006 4 24 4 z M 24 8 L 24 16.40625 C 24.843106 16.40625 25.647969 16.557881 26.40625 16.8125 L 29.0625 8.8125 C 35.433088 10.917682 40 16.906165 40 24 C 40 32.8603 32.860245 40 24 40 C 16.836076 40 10.79827 35.312842 8.75 28.84375 C 8.2649967 27.311955 8 25.696332 8 24 C 8 15.1398 15.139754 8 24 8 z M 8.75 28.84375 L 16.75 26.3125 C 16.747036 26.30324 16.752929 26.290525 16.75 26.28125 L 8.75 28.84375 z " transform="translate(0 1004.3622)"/>
</g>
<g style="fill:#555" transform="translate(0 -1004.3622)">
<path d="m 24,1022.3466 c -3.307786,0 -6.015625,2.7078 -6.015625,6.0156 0,3.3078 2.707839,6.0156 6.015625,6.0156 3.307786,0 6.015625,-2.7078 6.015625,-6.0156 0,-3.3078 -2.707839,-6.0156 -6.015625,-6.0156 z m 0,1.0312 c 2.767346,0 4.984375,2.2171 4.984375,4.9844 0,2.7673 -2.217029,4.9844 -4.984375,4.9844 -2.767346,0 -4.984375,-2.2171 -4.984375,-4.9844 0,-2.7673 2.217029,-4.9844 4.984375,-4.9844 z"/>
<path d="m 24,1024.3685 c -2.197294,0 -3.99375,1.7964 -3.99375,3.9937 0,2.1973 1.796456,3.9938 3.99375,3.9938 2.197294,0 3.99375,-1.7965 3.99375,-3.9938 0,-2.1973 -1.796456,-3.9937 -3.99375,-3.9937 z m 0,1.9875 c 1.116414,0 2.00625,0.8898 2.00625,2.0062 0,1.1164 -0.889836,2.0063 -2.00625,2.0063 -1.116414,0 -2.00625,-0.8899 -2.00625,-2.0063 0,-1.1164 0.889836,-2.0062 2.00625,-2.0062 z"/>
</g>
<g transform="translate(0 -1004.3622)">
<path style="fill:#555555#5555555" d="m -55.995099,958.36506 c -11.022006,0 -19.992151,8.97014 -19.992151,19.99215 0,11.02201 8.970145,19.99215 19.992151,19.99215 11.022007,0 19.992151,-8.97014 19.992151,-19.99215 0,-11.02201 -8.970144,-19.99215 -19.992151,-19.99215 z m 0,3.99843 c 8.860246,0 15.993721,7.13347 15.993721,15.99372 0,8.86025 -7.133475,15.99372 -15.993721,15.99372 -8.860245,0 -15.99372,-7.13347 -15.99372,-15.99372 0,-8.86025 7.133475,-15.99372 15.99372,-15.99372 z"/>
</g>
</g>
</svg>
